**harm	**harte	**timestamp	**phrase	**leadinstrument	**kern
*M4/4	*M4/4	*	*	*	*
*B:	*B:	*	*	*	*B:
1r;	N	0	.	r	1r;
=1	=1	=1	=1	=1	=1
*>A_intro	*>A_intro	*>A_intro	*>A_intro	*>A_intro	*>A_intro
1I7	B:maj7	0.209	newline	guitar	1B 1dd# 1ff# 1aa#
=2	=2	=2	=2	=2	=2
1I7	B:maj7	2.515	.	guitar	1B 1dd# 1ff# 1aa#
=3	=3	=3	=3	=3	=3
1-VI7	G:maj9	4.82	.	guitar	1G 1b 1dd 1ff#
=4	=4	=4	=4	=4	=4
1-VI7	G:maj9	7.126	.	guitar	1G 1b 1dd 1ff#
=5	=5	=5	=5	=5	=5
1I7	B:maj7	9.432	newline	guitar	1B 1dd# 1ff# 1aa#
=6	=6	=6	=6	=6	=6
1I7	B:maj7	11.646	.	guitar	1B 1dd# 1ff# 1aa#
=7	=7	=7	=7	=7	=7
1-VI7	G:maj9	13.861	.	guitar	1G 1b 1dd 1ff#
=8	=8	=8	=8	=8	=8
1-VI7	G:maj9	16.076	.	guitar	1G 1b 1dd 1ff#
=9	=9	=9	=9	=9	=9
*>B_verse	*>B_verse	*>B_verse	*>B_verse	*>B_verse	*>B_verse
1I7	B:maj7	18.29	newline	voice	1B 1dd# 1ff# 1aa#
=10	=10	=10	=10	=10	=10
1I7	B:maj7	20.541	.	voice	1B 1dd# 1ff# 1aa#
=11	=11	=11	=11	=11	=11
1im7	B:min7	22.792	.	voice	1B 1dd 1ff# 1aa#
=12	=12	=12	=12	=12	=12
1im7	B:min7	25.043	.	voice	1B 1dd 1ff# 1aa#
=13	=13	=13	=13	=13	=13
1IV7	E:maj7	27.294	newline	voice	1E 1g# 1b 1dd#
=14	=14	=14	=14	=14	=14
1IV7	E:maj7	29.535	.	voice	1E 1g# 1b 1dd#
=15	=15	=15	=15	=15	=15
1ivm7	E:min7	31.776	.	voice	1E 1g 1b 1dd#
=16	=16	=16	=16	=16	=16
1ivm7	E:min7	34.017	.	voice	1E 1g 1b 1dd#
=17	=17	=17	=17	=17	=17
1I7	B:maj7	36.258	newline	voice	1B 1dd# 1ff# 1aa#
=18	=18	=18	=18	=18	=18
1I7	B:maj7	38.511	.	voice	1B 1dd# 1ff# 1aa#
=19	=19	=19	=19	=19	=19
1im7	B:min7	40.763	.	voice	1B 1dd 1ff# 1aa#
=20	=20	=20	=20	=20	=20
1im7	B:min7	43.016	.	voice	1B 1dd 1ff# 1aa#
=21	=21	=21	=21	=21	=21
1IV7	E:maj7	45.269	newline	voice	1E 1g# 1b 1dd#
=22	=22	=22	=22	=22	=22
1IV7	E:maj7	47.514	.	voice	1E 1g# 1b 1dd#
=23	=23	=23	=23	=23	=23
1ivm7	E:min7	49.759	.	voice	1E 1g 1b 1dd#
=24	=24	=24	=24	=24	=24
1ivm7	E:min7	52.004	.	voice	1E 1g 1b 1dd#
=25	=25	=25	=25	=25	=25
*>A_trans	*>A_trans	*>A_trans	*>A_trans	*>A_trans	*>A_trans
1I7	B:maj7	54.249	newline	guitar	1B 1dd# 1ff# 1aa#
=26	=26	=26	=26	=26	=26
1I7	B:maj7	56.497	.	guitar	1B 1dd# 1ff# 1aa#
=27	=27	=27	=27	=27	=27
1-VI7	G:maj9	58.745	.	guitar	1G 1b 1dd 1ff#
=28	=28	=28	=28	=28	=28
1-VI7	G:maj9	60.993	.	guitar	1G 1b 1dd 1ff#
=29	=29	=29	=29	=29	=29
*>B_verse	*>B_verse	*>B_verse	*>B_verse	*>B_verse	*>B_verse
1I7	B:maj7	63.241	newline	voice	1B 1dd# 1ff# 1aa#
=30	=30	=30	=30	=30	=30
1I7	B:maj7	65.506	.	voice	1B 1dd# 1ff# 1aa#
=31	=31	=31	=31	=31	=31
1im7	B:min7	67.772	.	voice	1B 1dd 1ff# 1aa#
=32	=32	=32	=32	=32	=32
1im7	B:min7	70.037	.	voice	1B 1dd 1ff# 1aa#
=33	=33	=33	=33	=33	=33
1IV7	E:maj7	72.302	newline	voice	1E 1g# 1b 1dd#
=34	=34	=34	=34	=34	=34
1IV7	E:maj7	74.556	.	voice	1E 1g# 1b 1dd#
=35	=35	=35	=35	=35	=35
1ivm7	E:min7	76.81	.	voice	1E 1g 1b 1dd#
=36	=36	=36	=36	=36	=36
1ivm7	E:min7	79.064	.	voice	1E 1g 1b 1dd#
=37	=37	=37	=37	=37	=37
1I7	B:maj7	81.318	newline	voice	1B 1dd# 1ff# 1aa#
=38	=38	=38	=38	=38	=38
1I7	B:maj7	83.547	.	voice	1B 1dd# 1ff# 1aa#
=39	=39	=39	=39	=39	=39
1im7	B:min7	85.776	.	voice	1B 1dd 1ff# 1aa#
=40	=40	=40	=40	=40	=40
1im7	B:min7	88.005	.	voice	1B 1dd 1ff# 1aa#
=41	=41	=41	=41	=41	=41
1IV7	E:maj7	90.233	newline	voice	1E 1g# 1b 1dd#
=42	=42	=42	=42	=42	=42
1IV7	E:maj7	92.477	.	voice	1E 1g# 1b 1dd#
=43	=43	=43	=43	=43	=43
1ivm7	E:min7	94.721	.	voice	1E 1g 1b 1dd#
=44	=44	=44	=44	=44	=44
1ivm7	E:min7	96.964	.	voice	1E 1g 1b 1dd#
=45	=45	=45	=45	=45	=45
*>A_trans	*>A_trans	*>A_trans	*>A_trans	*>A_trans	*>A_trans
1I7	B:maj7	99.208	newline	guitar	1B 1dd# 1ff# 1aa#
=46	=46	=46	=46	=46	=46
1I7	B:maj7	101.481	.	guitar	1B 1dd# 1ff# 1aa#
=47	=47	=47	=47	=47	=47
1-VI7	G:maj9	103.753	.	guitar	1G 1b 1dd 1ff#
=48	=48	=48	=48	=48	=48
1-VI7	G:maj9	106.026	.	guitar	1G 1b 1dd 1ff#
=49	=49	=49	=49	=49	=49
*>B_verse	*>B_verse	*>B_verse	*>B_verse	*>B_verse	*>B_verse
1I7	B:maj7	108.299	newline	voice	1B 1dd# 1ff# 1aa#
=50	=50	=50	=50	=50	=50
1I7	B:maj7	110.569	.	voice	1B 1dd# 1ff# 1aa#
=51	=51	=51	=51	=51	=51
1im7	B:min7	112.84	.	voice	1B 1dd 1ff# 1aa#
=52	=52	=52	=52	=52	=52
1im7	B:min7	115.11	.	voice	1B 1dd 1ff# 1aa#
=53	=53	=53	=53	=53	=53
1IV7	E:maj7	117.38	newline	voice	1E 1g# 1b 1dd#
=54	=54	=54	=54	=54	=54
1IV7	E:maj7	119.62	.	voice	1E 1g# 1b 1dd#
=55	=55	=55	=55	=55	=55
1ivm7	E:min7	121.859	.	voice	1E 1g 1b 1dd#
=56	=56	=56	=56	=56	=56
1ivm7	E:min7	124.099	.	voice	1E 1g 1b 1dd#
=57	=57	=57	=57	=57	=57
1I7	B:maj7	126.338	newline	voice	1B 1dd# 1ff# 1aa#
=58	=58	=58	=58	=58	=58
1I7	B:maj7	128.585	.	voice	1B 1dd# 1ff# 1aa#
=59	=59	=59	=59	=59	=59
1im7	B:min7	130.832	.	voice	1B 1dd 1ff# 1aa#
=60	=60	=60	=60	=60	=60
1im7	B:min7	133.08	.	voice	1B 1dd 1ff# 1aa#
=61	=61	=61	=61	=61	=61
1IV7	E:maj7	135.327	newline	voice	1E 1g# 1b 1dd#
=62	=62	=62	=62	=62	=62
1IV7	E:maj7	137.584	.	voice	1E 1g# 1b 1dd#
=63	=63	=63	=63	=63	=63
1ivm7	E:min7	139.841	.	voice	1E 1g 1b 1dd#
=64	=64	=64	=64	=64	=64
1ivm7	E:min7	142.099	.	voice	1E 1g 1b 1dd#
=65	=65	=65	=65	=65	=65
*>A2_trans	*>A2_trans	*>A2_trans	*>A2_trans	*>A2_trans	*>A2_trans
1I7	B:maj7	144.356	newline	guitar	1B 1dd# 1ff# 1aa#
=66	=66	=66	=66	=66	=66
1I7	B:maj7	146.591	.	guitar	1B 1dd# 1ff# 1aa#
=67	=67	=67	=67	=67	=67
1im7	B:min7	148.825	.	guitar	1B 1dd 1ff# 1aa#
=68	=68	=68	=68	=68	=68
1im7	B:min7	151.059	.	guitar	1B 1dd 1ff# 1aa#
=69	=69	=69	=69	=69	=69
*>C_chorus	*>C_chorus	*>C_chorus	*>C_chorus	*>C_chorus	*>C_chorus
1IV7	E:maj7	153.293	newline	voice	1E 1g# 1b 1dd#
=70	=70	=70	=70	=70	=70
1IV7	E:maj7	155.556	.	voice	1E 1g# 1b 1dd#
=71	=71	=71	=71	=71	=71
1I7	B:maj7	157.819	.	voice	1B 1dd# 1ff# 1aa#
=72	=72	=72	=72	=72	=72
1I7	B:maj7	160.081	.	voice	1B 1dd# 1ff# 1aa#
=73	=73	=73	=73	=73	=73
1IVc	E:maj/5	162.344	newline	voice	1e 1g# 1B
=74	=74	=74	=74	=74	=74
1IVc	E:maj/5	164.561	.	voice	1e 1g# 1B
=75	=75	=75	=75	=75	=75
1V7	F#:sus4(b7)	166.779	.	voice	1F# 1a# 1cc# 1ee
=76	=76	=76	=76	=76	=76
1V7	F#:sus4(b7)	168.997	.	voice	1F# 1a# 1cc# 1ee
=77	=77	=77	=77	=77	=77
1V7	F#:sus4(b7)	171.214	newline	voice	1F# 1a# 1cc# 1ee
=78	=78	=78	=78	=78	=78
1V7	F#:sus4(b7)	173.495	.	voice	1F# 1a# 1cc# 1ee
=79	=79	=79	=79	=79	=79
*>A_coda	*>A_coda	*>A_coda	*>A_coda	*>A_coda	*>A_coda
1I7	B:maj7	175.775	newline	guitar	1B 1dd# 1ff# 1aa#
=80	=80	=80	=80	=80	=80
1I7	B:maj7	178.021	.	guitar	1B 1dd# 1ff# 1aa#
=81	=81	=81	=81	=81	=81
1-VI7	G:maj9	180.267	.	guitar	1G 1b 1dd 1ff#
=82	=82	=82	=82	=82	=82
1-VI7	G:maj9	182.513	.	guitar	1G 1b 1dd 1ff#
=83	=83	=83	=83	=83	=83
1I7	B:maj7	184.759	newline	guitar	1B 1dd# 1ff# 1aa#
=84	=84	=84	=84	=84	=84
1I7	B:maj7	187.076	.	guitar	1B 1dd# 1ff# 1aa#
=85	=85	=85	=85	=85	=85
1-VI7	G:maj9	189.393	.	guitar	1G 1b 1dd 1ff#
=86	=86	=86	=86	=86	=86
1-VI7	G:maj9	191.71	.	guitar	1G 1b 1dd 1ff#
=87	=87	=87	=87	=87	=87
1I7	B:maj7	194.027	newline	guitar	1B 1dd# 1ff# 1aa#
1r;	N	199.645	.	r	1r;
1r;	N	202.658	.	r	1r;
*-	*-	*-	*-	*-	*-
!!!OTL: Beautiful
!!!COC: Gordon Lightfoot
!!!BillboardChartDate: 1972/07/01
!!!BillboardPeak: 58
!!!BillboardWeeksOnChart: 11
!!!SampleTargetRank: 69
!!!SampleActualRank: 68
!!!SampleID#: 0180
!!!RDF**harmony: **recip + pitch class of root + harmonic quality
!!!RDF**harte: Chris Harte's syntax, used by MIREX
!!!RDF**phrase: newline = linebreak in original McGill transcription
!!!RDF**timestamp: McGill audio timestamp in seconds
!!!RDF**leadinstrument: original McGill primary instrumentation annotation
!!!RDT: 2017/01/12/
!!!ENC: Nathaniel Condit-Schultz
!!!EST: Awating manual error checking and editing.
